X: 1
T: Madge
T: Farewell to Scotland
C: J.S.Skinner
B: Skinner SV p.35
M: 6/8
L: 1/8
K: A
c'/b/ \
| (a>gf) (efd) | ce2- e2 f/g/ \
| (ac'/f'/) | (e'ac') | b3- b2 (c'/b/) |
| (a>gf) (efd) | ce2- e2 f/g/ \
| (a>bc') (bfg) | a3- a2c' |
|| (d'>e'f') (e'ab) | c'e'2- e'2c' \
| (a>gf) (eac') | b3- b2 (c'/b/) |
| (a>gf) (efd) | ce2- e2 e'/d'/ \
| (c'>ba) (b<fg) | a3- a2 |]
